images/HUSD.svg

<svg height="250" viewBox="0 0 250 250" width="250" xmlns="http://www.w3.org/2000/svg"><g fill-rule="evenodd"><path d="m123.464844 246.929688c68.1875 0 123.464844-55.277344 123.464844-123.464844s-55.277344-123.464844-123.464844-123.464844-123.464844 55.277344-123.464844 123.464844 55.277344 123.464844 123.464844 123.464844zm0 0" fill="#1a61f0"/><g fill="#fff"><path d="m159.683594 112.644531c-3.414063-1.550781-7.125-2.351562-10.875-2.351562h-37.945313c-7.28125 0-13.1875-5.90625-13.1875-13.1875v-45.453125h-26.386719v58.640625c.003907 14.570312 11.8125 26.382812 26.386719 26.386719h37.9375c3.496094 0 6.851563 1.390624 9.324219 3.867187 2.476562 2.472656 3.863281 5.828125 3.863281 9.328125v45.449219h26.386719v-58.644531c0-10.359376-6.0625-19.761719-15.503906-24.035157zm0 0"/><path d="m72.195312 152.808594v44.328125h26.386719v-17.941407c-.003906-14.574218-11.816406-26.386718-26.386719-26.386718zm0 0"/><path d="m153.402344 53.464844h-5.507813v17.941406c.003907 14.570312 11.816407 26.382812 26.386719 26.386719v-44.328125zm0 0"/></g></g></svg>

<svg xmlns="http://www.w3.org/2000/svg" xmlns:xlink="http://www.w3.org/1999/xlink" width="250px" height="250px" viewBox="0 0 250 250" version="1.1">
<g id="surface1">
<path style=" stroke:none;fill-rule:evenodd;fill:rgb(10.196079%,38.039216%,94.117647%);fill-opacity:1;" d="M 123.464844 246.929688 C 191.652344 246.929688 246.929688 191.652344 246.929688 123.464844 C 246.929688 55.277344 191.652344 0 123.464844 0 C 55.277344 0 0 55.277344 0 123.464844 C 0 191.652344 55.277344 246.929688 123.464844 246.929688 Z M 123.464844 246.929688 "/>
<path style=" stroke:none;fill-rule:evenodd;fill:rgb(100%,100%,100%);fill-opacity:1;" d="M 159.683594 112.644531 C 156.269531 111.09375 152.558594 110.292969 148.808594 110.292969 L 110.863281 110.292969 C 103.582031 110.292969 97.675781 104.386719 97.675781 97.105469 L 97.675781 51.652344 L 71.289062 51.652344 L 71.289062 110.292969 C 71.292969 124.863281 83.101562 136.675781 97.675781 136.679688 L 135.613281 136.679688 C 139.109375 136.679688 142.464844 138.070312 144.9375 140.546875 C 147.414062 143.019531 148.800781 146.375 148.800781 149.875 L 148.800781 195.324219 L 175.1875 195.324219 L 175.1875 136.679688 C 175.1875 126.320312 169.125 116.917969 159.683594 112.644531 Z M 159.683594 112.644531 "/>
<path style=" stroke:none;fill-rule:evenodd;fill:rgb(100%,100%,100%);fill-opacity:1;" d="M 72.195312 152.808594 L 72.195312 197.136719 L 98.582031 197.136719 L 98.582031 179.195312 C 98.578125 164.621094 86.765625 152.808594 72.195312 152.808594 Z M 72.195312 152.808594 "/>
<path style=" stroke:none;fill-rule:evenodd;fill:rgb(100%,100%,100%);fill-opacity:1;" d="M 153.402344 53.464844 L 147.894531 53.464844 L 147.894531 71.40625 C 147.898438 85.976562 159.710938 97.789062 174.28125 97.792969 L 174.28125 53.464844 Z M 153.402344 53.464844 "/>
</g>
</svg>
